X: 4087
T: Blockers, The
R: reel
M: 4/4
K: Gmajor
A2|Bcdc BGG2|=FDCD FGAc|dg~g2 fgag|fdc_B A=FF2|
Bcdc BGG2|=FDCD FGAc|dg~g2 fgag|fdcA G2:|
g2dg BgdB|cBcd cAFA|DG~G2 FGAc|Bcde fdef|
[1 g2dg BGdB|cBcd cAF2|DG~G2 FGAc|BGAF G2:|
[2 g2 (3agf gBdB|cBcd cAF2|DG~G2 FGAc|BGAF G2:|

